storage/app/icons/phosphoricons/thin/laptop-thin.svg

<svg xmlns="http://www.w3.org/2000/svg" fill="currentColor" viewBox="0 0 256 256"><path d="M232 172h-12V72a20 20 0 0 0-20-20H56a20 20 0 0 0-20 20v100H24a4 4 0 0 0-4 4v16a20 20 0 0 0 20 20h176a20 20 0 0 0 20-20v-16a4 4 0 0 0-4-4M44 72a12 12 0 0 1 12-12h144a12 12 0 0 1 12 12v100H44Zm184 120a12 12 0 0 1-12 12H40a12 12 0 0 1-12-12v-12h200ZM148 88a4 4 0 0 1-4 4h-32a4 4 0 0 1 0-8h32a4 4 0 0 1 4 4"/></svg>

<svg xmlns="http://www.w3.org/2000/svg" viewBox="0 0 256 256" fill="currentColor"><path d="M232,172H220V72a20,20,0,0,0-20-20H56A20,20,0,0,0,36,72V172H24a4,4,0,0,0-4,4v16a20,20,0,0,0,20,20H216a20,20,0,0,0,20-20V176A4,4,0,0,0,232,172ZM44,72A12,12,0,0,1,56,60H200a12,12,0,0,1,12,12V172H44ZM228,192a12,12,0,0,1-12,12H40a12,12,0,0,1-12-12V180H228ZM148,88a4,4,0,0,1-4,4H112a4,4,0,0,1,0-8h32A4,4,0,0,1,148,88Z"/></svg>
